X:26
T:Cape Clear
R:slow air
Z:id:hn-slowair-26
M:4/4
L:1/8
Q:1/4=80
K:Edor
B2 | e>f g4 fe | e>d B3A GA | B3A GB A>G | E6 B2 |
e>f g4 fe | dB b4 ba | g3f eg f>e | e6 ||
b2 | b>a g3a ba/g/ | a>g f3g af | g>f e3g fe | e>d B4 BA |
G3A B/c/d/B/ e2 | de f4 ba | g3f eg f>e | e6 ||

